X: 13774
T: Fort Dunree
R: strathspey
M: 4/4
K: Gmajor
gf|:e2 dB d3 B|A/B/c BA BGGF|E2{F}ED EFGA|B/A/G dB A2 B/c/d|e2 dB d3 B|
A/B/c BA BG{A}GF|1 E2{F}ED EFGB|AGGF G2 gf:|2 E2 D2 BDEB|AGGF G2 ga||
|:bdgb a2 a/g/f|g2 gf edgf|eddB dBGA|1 B/A/G dB A2 ga:|2 Bdgb a4||
e2 e/d/B d3 B|A/B/c BA BGGF|E2 D2 BDEB|AG{A}GF G4|

